dist/img/icon-viber.svg

<svg width="48" height="48" viewBox="0 0 48 48" fill="none" xmlns="http://www.w3.org/2000/svg">
<g clip-path="url(#clip0_85_3280)">
<path fill-rule="evenodd" clip-rule="evenodd" d="M24.0017 6.19666e-08C37.2563 0.000951851 48.0006 10.7465 48 24.0011C47.9994 37.2558 37.254 48.0003 23.9994 48C10.7448 47.9997 3.41731e-08 37.2546 0 24C-1.64115e-08 17.6345 2.5288 11.5298 7.03005 7.02883C11.5313 2.52791 17.6362 -0.000457032 24.0017 6.19666e-08Z" fill="#7360F2"/>
<path fill-rule="evenodd" clip-rule="evenodd" d="M29.7379 12.8256C25.864 12.0923 21.9353 12.0923 18.0605 12.8256C16.3658 13.2012 14.2337 15.2343 13.8169 16.8695C13.1235 20.0336 13.1235 23.2412 13.8169 26.4053C14.2337 28.0406 16.3658 30.0736 18.0605 30.4492L18.0618 30.4495C18.1373 30.4642 18.1923 30.5293 18.1923 30.6058V35.241C18.1923 35.4727 18.4765 35.5868 18.6383 35.419L20.8508 33.1594L22.931 31.0346C22.962 31.0029 23.0048 30.9858 23.0491 30.987C25.283 31.0486 27.5193 30.869 29.7379 30.4493C31.4327 30.0737 33.5656 28.0407 33.9816 26.4054C34.6758 23.2413 34.6758 20.0337 33.9816 16.8696C33.5655 15.2343 31.4335 13.2012 29.7379 12.8256ZM29.7962 26.6414C29.4573 27.3575 28.9641 27.9533 28.2527 28.3336C28.1154 28.407 27.9597 28.4464 27.8026 28.4862L27.8025 28.4862C27.7299 28.5046 27.657 28.5231 27.5855 28.545C27.5015 28.5196 27.4188 28.4969 27.3375 28.4746C27.1667 28.4278 27.0023 28.3827 26.846 28.3182C24.4566 27.3317 22.2576 26.0591 20.5157 24.1083C19.5251 22.9989 18.7498 21.7465 18.0945 20.421C17.8158 19.8574 17.5764 19.274 17.3375 18.6917L17.2548 18.4904C17.0113 17.8986 17.3699 17.2873 17.7475 16.8414C18.1017 16.4229 18.5576 16.1027 19.0513 15.8667C19.4366 15.6825 19.8167 15.7887 20.0982 16.1137C20.7066 16.8163 21.2654 17.5549 21.7179 18.3694C21.9962 18.8704 21.9198 19.4828 21.4155 19.8237C21.317 19.8903 21.2256 19.9662 21.1342 20.042L21.1342 20.042L21.1342 20.042C21.1118 20.0606 21.0895 20.0791 21.0671 20.0975C20.9669 20.1795 20.8727 20.2624 20.8041 20.3734C20.6786 20.5766 20.6726 20.8163 20.7534 21.0372C21.3753 22.7379 22.4236 24.0604 24.1438 24.7727L24.2177 24.8035C24.4689 24.909 24.7239 25.016 25.0126 24.9825C25.3563 24.9426 25.5496 24.6858 25.744 24.4274C25.8501 24.2865 25.9565 24.1451 26.0879 24.0382C26.4516 23.7423 26.9165 23.7384 27.3083 23.9851C27.7003 24.2319 28.0802 24.4969 28.4578 24.7647L28.5342 24.8188C28.8791 25.063 29.2211 25.3052 29.5396 25.5843C29.8681 25.8723 29.9814 26.2503 29.7962 26.6414ZM26.6773 21.0977C26.6209 21.0993 26.5626 21.1022 26.711 21.0996C26.7365 21.0979 26.7383 21.0971 26.7291 21.0969C26.8422 21.0822 26.954 21.0011 26.9903 20.8453C27.012 20.7526 27.003 20.6505 26.9945 20.5532V20.5532L26.9937 20.5436C26.8701 19.124 26.004 18.5007 24.7923 18.4136C24.5984 18.3996 24.4258 18.5374 24.3961 18.714C24.3635 18.908 24.4784 19.0756 24.6863 19.1261C24.7759 19.148 24.8673 19.1563 24.9589 19.1646L24.9589 19.1646C25.0627 19.174 25.1667 19.1835 25.2686 19.2128C25.4196 19.256 25.5638 19.3233 25.691 19.4156C25.9603 19.6109 26.1306 19.9062 26.2091 20.2249C26.2435 20.3642 26.2592 20.5085 26.2749 20.652L26.2826 20.7217C26.3082 20.9493 26.4383 21.0893 26.6773 21.0977ZM25.958 17.8526C25.5861 17.6714 25.184 17.5588 24.7764 17.4917C24.6655 17.4735 24.5539 17.4597 24.4423 17.4459C24.3746 17.4376 24.3069 17.4292 24.2393 17.4198C24.0224 17.3899 23.9067 17.2523 23.9169 17.0396C23.9265 16.8403 24.0729 16.697 24.2911 16.7093C25.0084 16.7498 25.7012 16.904 26.3388 17.24C27.6356 17.9234 28.3763 19.002 28.5925 20.4422C28.596 20.4653 28.6002 20.4882 28.6044 20.5112L28.6044 20.5112C28.6121 20.5533 28.6198 20.5953 28.623 20.6376C28.6316 20.7508 28.6379 20.8642 28.6452 20.9952C28.6484 21.0513 28.6517 21.1105 28.6554 21.1743C28.6541 21.1842 28.653 21.1974 28.6516 21.213C28.6476 21.2591 28.6418 21.3263 28.6248 21.3905C28.5418 21.7028 28.0661 21.7418 27.9565 21.4267C27.9241 21.3332 27.9192 21.2268 27.9191 21.1261C27.9179 20.4674 27.7741 19.8094 27.4402 19.2363C27.0971 18.6474 26.5728 18.1522 25.958 17.8526ZM29.5844 21.8744C29.6007 22.098 29.7134 22.3065 29.9639 22.3036C30.2065 22.3007 30.3338 22.0882 30.3163 21.8646C30.3112 21.7991 30.3062 21.7336 30.3012 21.668C30.2655 21.2011 30.2297 20.7327 30.1475 20.2733C29.6001 17.2138 27.0555 15.1553 23.9509 15.0492C24.3252 15.0606 26.774 15.1276 23.905 15.0476C23.8873 15.0475 23.8695 15.0472 23.8518 15.0469C23.809 15.0463 23.7662 15.0456 23.7236 15.0479C23.502 15.0597 23.3056 15.2441 23.3471 15.4757C23.3938 15.7366 23.6574 15.763 23.8747 15.7848C23.8874 15.7861 23.9 15.7874 23.9124 15.7887C24.0222 15.8001 24.1325 15.8096 24.2428 15.8191C24.4869 15.8401 24.731 15.8611 24.9712 15.9037C27.2886 16.315 29.1451 18.2317 29.4686 20.5484C29.5175 20.8982 29.5416 21.2516 29.5656 21.6047C29.5717 21.6946 29.5779 21.7845 29.5844 21.8744Z" fill="white"/>
</g>
<defs>
<clipPath id="clip0_85_3280">
<rect width="48" height="48" fill="white"/>
</clipPath>
</defs>
</svg>

<svg width="48" height="48" fill="none" xmlns="http://www.w3.org/2000/svg"><g clip-path="url(#clip0_85_3280)" fill-rule="evenodd" clip-rule="evenodd"><path d="M24.002 0C37.256.001 48 10.746 48 24.001S37.254 48.001 24 48C10.744 48 0 37.255 0 24A24 24 0 0124.002 0z" fill="#7360F2"/><path d="M29.738 12.826a31.268 31.268 0 00-11.677 0c-1.695.375-3.827 2.408-4.244 4.043a22.116 22.116 0 000 9.536c.417 1.636 2.549 3.669 4.244 4.044a.16.16 0 01.131.157v4.635a.26.26 0 00.446.178l2.213-2.26 2.08-2.124a.159.159 0 01.118-.048c2.234.062 4.47-.118 6.689-.538 1.695-.375 3.828-2.408 4.244-4.044a22.092 22.092 0 000-9.535c-.416-1.636-2.549-3.669-4.244-4.044zm.058 13.815c-.339.717-.832 1.312-1.543 1.693-.138.073-.293.112-.45.152a4.597 4.597 0 00-.218.059 9.868 9.868 0 00-.248-.07 4.174 4.174 0 01-.491-.157c-2.39-.986-4.588-2.259-6.33-4.21-.99-1.11-1.766-2.361-2.421-3.687a27.03 27.03 0 01-.758-1.73l-.082-.2c-.244-.592.115-1.204.492-1.65.355-.418.81-.738 1.304-.974.386-.185.766-.078 1.047.247.609.702 1.167 1.44 1.62 2.255.278.501.202 1.114-.302 1.455-.099.066-.19.142-.282.218a16.4 16.4 0 01-.067.055 1.15 1.15 0 00-.263.276.752.752 0 00-.05.664c.621 1.7 1.67 3.023 3.39 3.736l.074.03c.25.106.506.213.795.18.343-.04.537-.297.731-.556.106-.14.212-.282.344-.389.364-.296.828-.3 1.22-.053s.772.512 1.15.78l.076.054c.345.244.687.486 1.006.765.328.288.441.666.256 1.057zm-3.119-5.543a.477.477 0 00.034.002.31.31 0 00.28-.254.958.958 0 00.003-.293v-.01c-.124-1.419-.99-2.042-2.202-2.13a.375.375 0 00-.396.301c-.033.194.082.362.29.412.09.022.181.03.273.039a1.339 1.339 0 01.732.251c.27.195.44.49.518.809.035.14.05.284.066.427l.008.07c.025.227.155.367.394.376zm-.719-3.245a4.278 4.278 0 00-1.182-.361 8.947 8.947 0 00-.334-.046 12.65 12.65 0 01-.203-.026c-.217-.03-.332-.168-.322-.38.01-.2.156-.343.374-.33.717.04 1.41.194 2.048.53 1.297.683 2.037 1.762 2.254 3.202l.011.07c.008.041.016.083.019.126.009.113.015.226.022.357l.01.18-.003.038c-.004.046-.01.113-.027.177-.083.313-.559.352-.669.037a.935.935 0 01-.037-.3c-.001-.66-.145-1.318-.479-1.89a3.528 3.528 0 00-1.482-1.384zm3.626 4.021c.017.224.13.433.38.43.242-.003.37-.216.352-.44l-.015-.196a13.834 13.834 0 00-.153-1.395c-.548-3.06-3.093-5.118-6.197-5.224a91.169 91.169 0 00-.1-.002h-.127c-.222.013-.418.197-.377.429.047.26.31.287.528.309l.037.004.33.03c.245.021.489.042.73.085 2.317.411 4.173 2.328 4.497 4.644.048.35.073.704.097 1.057l.018.27z" fill="#fff"/></g><defs><clipPath id="clip0_85_3280"><path fill="#fff" d="M0 0h48v48H0z"/></clipPath></defs></svg>
